X: 1489
T: Andrew Molloy's
R: jig
M: 6/8
K: Cmajor
G3 FAF|:EDC EAG|cBc dcd|efg eBc|dcB ~A2G|
EDC EAG|cBc dcd|efg eBc|1 dcB c2G:|2 dcB c2e||
|:g2e ceg|a2 a3 f|efg ede|fef dfg|
eBc efg|a2 a3 f|efg eBc|1 dcB c2e:|2 dcB c2G||

